src/topics/icons/rubygems.svg

<svg height="293" preserveAspectRatio="xMidYMid" viewBox="0 0 256 293" width="256" xmlns="http://www.w3.org/2000/svg"><g fill="#d34231"><path d="m76.7478977 97.4337652-.1626607-.1626607-36.1106776 36.1106775 87.6741226 87.511462 36.110678-35.948017 51.563445-51.563445-36.110678-36.1106775v-.1626607h-103.12689z"/><path d="m127.823361.97596426-127.6886576 73.19731944v146.3946393l127.6886576 73.197319 127.688657-73.197319v-146.3946393zm103.28955 205.60313774-103.28955 59.533819-103.2895511-59.533819v-118.7423187l103.2895511-59.5338198 103.28955 59.5338198z"/></g></svg>

<?xml version="1.0" encoding="UTF-8" standalone="no"?>
<svg width="256px" height="293px" viewBox="0 0 256 293" version="1.1" xmlns="http://www.w3.org/2000/svg" xmlns:xlink="http://www.w3.org/1999/xlink" preserveAspectRatio="xMidYMid">
	<g fill="#D34231">
		<path d="M76.7478977,97.4337652 L76.585237,97.2711045 L40.4745594,133.381782 L128.148682,220.893244 L164.25936,184.945227 L215.822805,133.381782 L179.712127,97.2711045 L179.712127,97.1084438 L76.585237,97.1084438 L76.7478977,97.4337652 Z"></path>
		<path d="M127.823361,0.975964259 L0.1347034,74.1732837 L0.1347034,220.567923 L127.823361,293.765242 L255.512018,220.567923 L255.512018,74.1732837 L127.823361,0.975964259 L127.823361,0.975964259 Z M231.112911,206.579102 L127.823361,266.112921 L24.5338099,206.579102 L24.5338099,87.8367833 L127.823361,28.3029635 L231.112911,87.8367833 L231.112911,206.579102 L231.112911,206.579102 Z"></path>
	</g>
</svg>
